X: 1742
T: Nancy Dawson
C:Trad (English)
B: australian traditional tunes wiki
M:6/8
L:1/8
R: Jig
Q: 3/8=100
K:G
V:1 
"G"G2BG2B|d2BG2B|"D"A2B A2B|A2G FED|
"G"G2BG2B|d2BG2B|"D"A2GF2E|D3D3:|
|:"Am"A2BA2B|"D"A2G FED|"G"D2ed2e|d2c BAG|
"C"c2Bc2d|e2f gfe|"D"d2cB2A|"G"G3G3:|
% abcbook-tune_id 6342d53ac33b72501a864589


% abcbook-boost 0
% abcbook-tablature 
% abcbook-transpose 
% abcbook-lastupdated 1665324381277
% abcbook-soundfonts 
% abcbook-repeats 1
% NFF Book 2020
% Bush Traditions recording played by Roland Clarke

